src/16/actions/view-calendar-upcoming-events.svg

<svg xmlns="http://www.w3.org/2000/svg" width="16" height="16"><defs><style id="current-color-scheme" type="text/css"></style></defs><path d="M3 1C.75 1 1 3 1 3v12h14V3c0-2-2-2-2-2H3zm0 2h10v10H3V3zm4 2v4h2V5H7zm1 5a1 1 0 0 0-1 1 1 1 0 0 0 1 1 1 1 0 0 0 1-1 1 1 0 0 0-1-1z" fill="currentColor" color="#565656"/></svg>

<svg xmlns="http://www.w3.org/2000/svg" width="16" height="16" viewBox="0 0 16 16">
 <defs>
  <style id="current-color-scheme" type="text/css">
   .ColorScheme-Text { color:#565656; } .ColorScheme-Highlight { color:#5294e2; }
  </style>
 </defs>
 <path style="fill:currentColor" class="ColorScheme-Text" d="M 3 1 C 0.75 1 1 3 1 3 L 1 15 L 15 15 L 15 3 C 15 1 13 1 13 1 L 3 1 z M 3 3 L 13 3 L 13 13 L 3 13 L 3 10.5 L 3 3 z M 7 5 L 7 9 L 9 9 L 9 5 L 7 5 z M 8 10 A 1 1 0 0 0 7 11 A 1 1 0 0 0 8 12 A 1 1 0 0 0 9 11 A 1 1 0 0 0 8 10 z"/>
</svg>
